material/svg/youtube-icon.svg

<?xml version="1.0" encoding="UTF-8" standalone="no"?>
<!-- Uploaded to: SVG Repo, www.svgrepo.com, Transformed by: SVG Repo Mixer Tools -->

<svg
   fill="#ff2600"
   width="749.82495"
   height="528.60004"
   viewBox="0 0 29.992998 21.144001"
   version="1.1"
   id="svg1"
   xmlns="http://www.w3.org/2000/svg"
   xmlns:svg="http://www.w3.org/2000/svg">
  <defs
     id="defs1" />
  <g
     id="SVGRepo_iconCarrier"
     transform="translate(-1.0039999,-5.4270001)">
    <title
       id="title1">youtube</title>
    <path
       d="m 12.932,20.459 v -8.917 l 7.839,4.459 z M 30.368,8.735 C 30.014,7.434 29.014,6.428 27.743,6.072 L 27.716,6.066 C 24.523,5.66 20.83,5.428 17.082,5.428 c -0.381,0 -0.761,0.002 -1.14,0.007 L 16,5.434 C 15.678,5.43 15.299,5.427 14.918,5.427 11.17,5.427 7.475,5.659 3.848,6.108 L 4.282,6.064 C 2.985,6.427 1.985,7.432 1.638,8.707 L 1.632,8.733 c -0.4,2.109 -0.628,4.536 -0.628,7.016 0,0.088 0,0.176 10e-4,0.263 v -0.014 c 0,0.074 -10e-4,0.162 -10e-4,0.25 0,2.48 0.229,4.906 0.666,7.259 L 1.632,23.263 c 0.354,1.301 1.354,2.307 2.625,2.663 l 0.027,0.006 c 3.193,0.406 6.886,0.638 10.634,0.638 0.38,0 0.76,-0.002 1.14,-0.007 L 16,26.564 c 0.322,0.004 0.702,0.007 1.082,0.007 3.749,0 7.443,-0.232 11.07,-0.681 l -0.434,0.044 c 1.298,-0.362 2.298,-1.368 2.646,-2.643 l 0.006,-0.026 c 0.399,-2.109 0.627,-4.536 0.627,-7.015 0,-0.088 0,-0.176 -0.001,-0.263 V 16 c 0,-0.074 0.001,-0.162 0.001,-0.25 0,-2.48 -0.229,-4.906 -0.666,-7.259 l 0.038,0.244 z"
       id="path1" />
  </g>
  <path
     style="fill:#ffffff;stroke-width:0.049942"
     d="m 11.930956,10.579384 c 0,-2.4171885 0.01371,-4.3948885 0.03047,-4.3948885 0.05096,0 7.710637,4.3654575 7.709096,4.3936205 -7.88e-4,0.01443 -1.051442,0.621481 -2.334784,1.348999 -1.283343,0.727518 -3.01473,1.710749 -3.847528,2.184959 -0.832798,0.474209 -1.52387,0.862199 -1.535714,0.862199 -0.01184,0 -0.02154,-1.9777 -0.02154,-4.394889 z"
     id="path2" />
</svg>

<!DOCTYPE svg PUBLIC "-//W3C//DTD SVG 1.1//EN" "http://www.w3.org/Graphics/SVG/1.1/DTD/svg11.dtd">
<!-- Uploaded to: SVG Repo, www.svgrepo.com, Transformed by: SVG Repo Mixer Tools -->
<svg fill="#ff2600" width="800px" height="800px" viewBox="0 0 32 32" version="1.1" xmlns="http://www.w3.org/2000/svg">
<g id="SVGRepo_bgCarrier" stroke-width="0"/>
<g id="SVGRepo_tracerCarrier" stroke-linecap="round" stroke-linejoin="round"/>
<g id="SVGRepo_iconCarrier"> <title>youtube</title> <path d="M12.932 20.459v-8.917l7.839 4.459zM30.368 8.735c-0.354-1.301-1.354-2.307-2.625-2.663l-0.027-0.006c-3.193-0.406-6.886-0.638-10.634-0.638-0.381 0-0.761 0.002-1.14 0.007l0.058-0.001c-0.322-0.004-0.701-0.007-1.082-0.007-3.748 0-7.443 0.232-11.070 0.681l0.434-0.044c-1.297 0.363-2.297 1.368-2.644 2.643l-0.006 0.026c-0.4 2.109-0.628 4.536-0.628 7.016 0 0.088 0 0.176 0.001 0.263l-0-0.014c-0 0.074-0.001 0.162-0.001 0.25 0 2.48 0.229 4.906 0.666 7.259l-0.038-0.244c0.354 1.301 1.354 2.307 2.625 2.663l0.027 0.006c3.193 0.406 6.886 0.638 10.634 0.638 0.38 0 0.76-0.002 1.14-0.007l-0.058 0.001c0.322 0.004 0.702 0.007 1.082 0.007 3.749 0 7.443-0.232 11.070-0.681l-0.434 0.044c1.298-0.362 2.298-1.368 2.646-2.643l0.006-0.026c0.399-2.109 0.627-4.536 0.627-7.015 0-0.088-0-0.176-0.001-0.263l0 0.013c0-0.074 0.001-0.162 0.001-0.25 0-2.48-0.229-4.906-0.666-7.259l0.038 0.244z"/> </g>
</svg>
